img/icons/icon-magic-book-yellow.svg

<svg width="36" height="36" viewBox="0 0 36 36" fill="none" xmlns="http://www.w3.org/2000/svg">
<path d="M32.2381 25.3701H21.3688C20.7024 25.37 20.0463 25.5343 19.4586 25.8485C18.871 26.1627 18.37 26.6171 18 27.1714C17.6301 26.6171 17.129 26.1627 16.5414 25.8485C15.9537 25.5343 15.2976 25.37 14.6313 25.3701H3.76189C2.98086 25.3701 2.23171 25.6799 1.67879 26.2315C1.12588 26.7832 0.814335 27.5316 0.812514 28.3126V33.517C0.811609 33.7361 0.853975 33.9531 0.937181 34.1558C1.02039 34.3584 1.14279 34.5427 1.29738 34.6979C1.45196 34.8531 1.63568 34.9763 1.83798 35.0603C2.04029 35.1444 2.2572 35.1876 2.47626 35.1876H33.5238C33.965 35.1876 34.3882 35.0123 34.7002 34.7003C35.0122 34.3883 35.1875 33.9651 35.1875 33.5239V28.3126C35.1857 27.5316 34.8742 26.7832 34.3212 26.2315C33.7683 25.6799 33.0192 25.3701 32.2381 25.3701V25.3701ZM21.3688 26.7451H32.2381C32.6539 26.7469 33.0523 26.9124 33.347 27.2058C33.6416 27.4992 33.8089 27.8968 33.8125 28.3126V28.7251H23.1425C22.9602 28.7251 22.7853 28.7975 22.6564 28.9265C22.5274 29.0554 22.455 29.2303 22.455 29.4126C22.455 29.595 22.5274 29.7698 22.6564 29.8988C22.7853 30.0277 22.9602 30.1001 23.1425 30.1001H33.8125V31.1176H18.6875V29.4264C18.6893 28.7158 18.9724 28.0349 19.4748 27.5324C19.9773 27.03 20.6582 26.7469 21.3688 26.7451V26.7451ZM3.76189 26.7451H14.6313C15.3418 26.7469 16.0227 27.03 16.5252 27.5324C17.0276 28.0349 17.3107 28.7158 17.3125 29.4264V31.1245H2.18751V30.107H12.8575C13.0399 30.107 13.2147 30.0346 13.3436 29.9056C13.4726 29.7767 13.545 29.6018 13.545 29.4195C13.545 29.2372 13.4726 29.0623 13.3436 28.9334C13.2147 28.8044 13.0399 28.732 12.8575 28.732H2.18751V28.3126C2.18933 27.8963 2.35601 27.4976 2.65106 27.2038C2.94612 26.91 3.34553 26.7451 3.76189 26.7451V26.7451ZM2.18751 33.5239V32.4995H17.3125V33.8126H2.47626C2.43834 33.8126 2.4008 33.8051 2.36576 33.7906C2.33073 33.7761 2.2989 33.7549 2.27209 33.728C2.24527 33.7012 2.22401 33.6694 2.20949 33.6344C2.19498 33.5993 2.18751 33.5618 2.18751 33.5239V33.5239ZM33.8125 33.5239C33.8125 33.5618 33.805 33.5993 33.7905 33.6344C33.776 33.6694 33.7547 33.7012 33.7279 33.728C33.7011 33.7549 33.6693 33.7761 33.6343 33.7906C33.5992 33.8051 33.5617 33.8126 33.5238 33.8126H18.6875V32.4995H33.8125V33.5239Z" fill="#FBC469"/>
<path d="M10.0112 13.3042C9.84525 13.257 9.66755 13.2739 9.51344 13.3516C9.35933 13.4292 9.24007 13.5621 9.17936 13.7236C8.79309 14.8306 8.68387 16.0153 8.86124 17.1742C9.03862 18.3332 9.49719 19.431 10.1969 20.3717C11.0577 21.6362 12.2249 22.6619 13.5894 23.3531C14.9539 24.0444 16.4713 24.3787 18 24.3249C22.0631 24.3249 26.5387 22.2624 27.1025 18.2542C27.9619 12.218 24.9094 10.8086 24.7787 10.7536C24.6485 10.6981 24.5043 10.6842 24.3658 10.7137C24.2274 10.7432 24.1014 10.8147 24.0051 10.9185C23.9088 11.0223 23.8469 11.1533 23.8279 11.2936C23.8089 11.4339 23.8336 11.5767 23.8987 11.7024C24.1947 12.2853 24.2562 12.9593 24.0706 13.5861C23.966 13.815 23.8052 14.0136 23.6031 14.1636C23.555 12.4311 22.2281 10.4649 19.8219 8.48487C17.9587 6.9655 19.7187 4.39425 19.8219 4.28425C19.9017 4.16917 19.9445 4.03244 19.9445 3.89237C19.9445 3.75231 19.9017 3.61558 19.8219 3.5005C19.7425 3.38634 19.6303 3.29894 19.5002 3.24984C19.3701 3.20074 19.2281 3.19226 19.0931 3.2255C16.2606 3.913 11.2144 6.72487 12.3694 12.2592C12.7819 14.2667 12.5137 15.2636 12.1219 15.5317C11.9693 15.5956 11.8022 15.6165 11.6387 15.5923C11.4751 15.568 11.3212 15.4996 11.1937 15.3942C10.9702 15.2659 10.7871 15.0774 10.6656 14.8501C10.544 14.6227 10.4888 14.3658 10.5062 14.1086C10.5421 13.9367 10.5108 13.7576 10.4187 13.608C10.3267 13.4584 10.1809 13.3497 10.0112 13.3042V13.3042ZM20.2 22.0149C20.0487 22.5167 19.5125 22.8192 18.6256 22.9155C18.3506 22.9155 18.0619 22.9155 17.7594 22.9155C17.0719 22.9155 16.24 22.7642 15.9237 22.283C15.3875 21.4717 16.185 19.588 16.7694 18.213C16.9825 17.718 17.175 17.2642 17.3262 16.838C19.0244 18.3161 20.5712 20.7499 20.2 22.0149ZM12.8437 16.673C13.5312 16.1849 14.2875 14.9817 13.6619 11.9774C12.8437 8.0105 15.8894 5.98237 17.8487 5.10237C17.5314 5.86156 17.4657 6.70244 17.6612 7.50171C17.8567 8.30098 18.3031 9.01659 18.935 9.54362C21.4719 11.6061 22.6406 13.6686 22.0562 15.0436C22.0052 15.1624 21.9887 15.2931 22.0086 15.4208C22.0285 15.5484 22.0839 15.6679 22.1686 15.7655C22.2533 15.8632 22.3638 15.9349 22.4874 15.9726C22.611 16.0103 22.7427 16.0124 22.8675 15.9786C23.3896 15.8799 23.8816 15.6616 24.3051 15.3407C24.7286 15.0198 25.0719 14.6052 25.3081 14.1292C25.375 13.9792 25.4257 13.8225 25.4594 13.6617C25.9142 15.0809 26.004 16.5918 25.7206 18.0549C25.48 19.7667 24.0981 21.4924 21.5269 22.3517C22.1731 20.0211 19.4644 16.5217 17.2919 15.1192C17.1924 15.0548 17.078 15.0171 16.9598 15.0099C16.8415 15.0027 16.7234 15.0262 16.6169 15.078C16.5103 15.1299 16.419 15.2084 16.3518 15.306C16.2846 15.4036 16.2437 15.5169 16.2331 15.6349C16.0736 16.3491 15.8289 17.0415 15.5044 17.6974C14.865 19.203 14.1294 20.8736 14.4319 22.2142C13.182 21.632 12.1112 20.725 11.3312 19.588C10.6562 18.6381 10.2479 17.5247 10.1487 16.3636L10.3825 16.5355C10.7317 16.8024 11.1531 16.9583 11.592 16.9828C12.0308 17.0073 12.467 16.8994 12.8437 16.673V16.673Z" fill="#FBC469"/>
<path d="M2.22875 5.02688C1.37625 5.46 0.8125 5.71437 0.8125 6.3675C0.8125 7.02062 1.37625 7.275 2.22875 7.6875C3.4355 8.30186 4.41548 9.28425 5.02688 10.4925C5.46 11.3381 5.71437 11.8675 6.3675 11.8675C7.02062 11.8675 7.275 11.3037 7.70125 10.4925C8.31326 9.28234 9.29609 8.29951 10.5063 7.6875C11.3519 7.26125 11.8813 7 11.8813 6.35375C11.8813 5.7075 11.3175 5.44625 10.5063 5.01312C9.29357 4.40964 8.30582 3.43393 7.6875 2.22875C7.275 1.37625 7 0.8125 6.3675 0.8125C5.735 0.8125 5.46 1.37625 5.02688 2.22875C4.41508 3.43501 3.43501 4.41508 2.22875 5.02688V5.02688ZM6.2575 2.875C6.2575 2.81312 6.32625 2.7375 6.3675 2.66187L6.47062 2.875C7.21681 4.3608 8.42232 5.56631 9.90812 6.3125L10.1213 6.4225L9.90812 6.52563C8.42463 7.27501 7.22001 8.47963 6.47062 9.96312C6.47062 10.025 6.40187 10.0938 6.3675 10.1763C6.32625 10.0938 6.285 10.025 6.2575 9.96312C5.50693 8.48049 4.30264 7.27619 2.82 6.52563L2.6 6.4225L2.82 6.3125C4.30493 5.56511 5.51011 4.35993 6.2575 2.875V2.875Z" fill="#FBC469"/>
<path d="M34.0394 8.45051C33.1763 8.0139 32.4754 7.31294 32.0388 6.44988C31.7156 5.81051 31.4613 5.30176 30.8906 5.30176C30.32 5.30176 30.0656 5.81051 29.7425 6.44988C29.3059 7.31294 28.6049 8.0139 27.7419 8.45051C27.1025 8.77363 26.5938 9.02801 26.5938 9.59863C26.5938 10.1693 27.1025 10.4305 27.7419 10.7536C28.6044 11.1877 29.3055 11.8863 29.7425 12.7474C30.0656 13.3936 30.32 13.8955 30.8906 13.8955C31.4613 13.8955 31.7156 13.3936 32.0388 12.7474C32.4757 11.8863 33.1768 11.1877 34.0394 10.7536C34.6788 10.4374 35.1875 10.1761 35.1875 9.59863C35.1875 9.02113 34.6788 8.77363 34.0394 8.45051ZM30.8906 11.9843C30.343 10.9773 29.5172 10.1492 28.5119 9.59863C29.517 9.05087 30.3429 8.22498 30.8906 7.21988C31.4393 8.22665 32.2679 9.05288 33.2763 9.59863C32.2674 10.1469 31.4389 10.9754 30.8906 11.9843V11.9843Z" fill="#FBC469"/>
</svg>

<svg width="36" height="36" fill="none" xmlns="http://www.w3.org/2000/svg"><path d="M32.238 25.37h-10.87A4.05 4.05 0 0018 27.171a4.049 4.049 0 00-3.369-1.8H3.761a2.95 2.95 0 00-2.948 2.942v5.204a1.664 1.664 0 001.663 1.67h31.048a1.664 1.664 0 001.663-1.663v-5.211a2.95 2.95 0 00-2.949-2.943zm-10.87 1.375h10.87a1.581 1.581 0 011.575 1.568v.412h-10.67a.687.687 0 100 1.375h10.67v1.018H18.687v-1.692a2.688 2.688 0 012.682-2.68zm-17.606 0h10.87a2.688 2.688 0 012.68 2.681v1.699H2.188v-1.018h10.67a.687.687 0 100-1.375H2.188v-.42a1.575 1.575 0 011.574-1.567zm-1.574 6.779v-1.025h15.125v1.314H2.476a.289.289 0 01-.288-.29zm31.625 0a.29.29 0 01-.29.289H18.688v-1.314h15.125v1.025zm-23.802-20.22a.688.688 0 00-.832.42 7.178 7.178 0 001.018 6.648A9.053 9.053 0 0018 24.325c4.063 0 8.539-2.063 9.102-6.07.86-6.037-2.193-7.446-2.323-7.501a.688.688 0 00-.88.948 2.56 2.56 0 01.172 1.884 1.49 1.49 0 01-.468.578c-.048-1.733-1.375-3.7-3.781-5.68-1.863-1.519-.103-4.09 0-4.2a.688.688 0 00-.729-1.058c-2.832.687-7.879 3.499-6.724 9.033.413 2.008.145 3.005-.247 3.273a.907.907 0 01-.928-.138 1.375 1.375 0 01-.688-1.285.687.687 0 00-.495-.805zm10.189 8.71c-.151.503-.688.805-1.574.902h-.867c-.687 0-1.519-.152-1.835-.633-.537-.811.261-2.695.845-4.07.214-.495.406-.949.557-1.375 1.698 1.478 3.245 3.912 2.874 5.177zm-7.356-5.341c.687-.488 1.444-1.691.818-4.696-.818-3.966 2.227-5.995 4.187-6.875a3.85 3.85 0 001.086 4.442c2.537 2.062 3.706 4.125 3.121 5.5a.688.688 0 00.811.935 3.437 3.437 0 002.441-1.85c.067-.15.118-.306.151-.467a8.87 8.87 0 01.262 4.393c-.241 1.712-1.623 3.437-4.194 4.297.646-2.33-2.063-5.83-4.235-7.233a.688.688 0 00-1.059.516 9.147 9.147 0 01-.729 2.062c-.639 1.506-1.375 3.177-1.072 4.517a7.706 7.706 0 01-3.1-2.626 6.526 6.526 0 01-1.183-3.224l.234.171a2.193 2.193 0 002.46.138zM2.229 5.027c-.853.433-1.417.687-1.417 1.34 0 .654.564.908 1.417 1.32a6.38 6.38 0 012.798 2.805c.433.846.687 1.375 1.34 1.375.654 0 .908-.563 1.334-1.375a6.36 6.36 0 012.805-2.805c.846-.426 1.375-.687 1.375-1.333 0-.647-.563-.908-1.375-1.34a6.345 6.345 0 01-2.819-2.785C7.276 1.376 7 .812 6.367.812c-.632 0-.907.564-1.34 1.417a6.366 6.366 0 01-2.798 2.798zm4.029-2.152c0-.062.068-.138.11-.213l.103.213a7.728 7.728 0 003.437 3.438l.213.11-.213.103a7.783 7.783 0 00-3.437 3.437c0 .062-.07.13-.104.213-.04-.082-.082-.151-.11-.213A7.803 7.803 0 002.82 6.526l-.22-.103.22-.11a7.748 7.748 0 003.438-3.438zM34.04 8.45a4.537 4.537 0 01-2.001-2c-.323-.64-.578-1.148-1.148-1.148-.571 0-.825.509-1.148 1.148a4.538 4.538 0 01-2.001 2c-.64.324-1.148.578-1.148 1.149 0 .57.508.832 1.148 1.155a4.524 4.524 0 012 1.993c.324.647.578 1.149 1.149 1.149.57 0 .825-.502 1.148-1.149a4.523 4.523 0 012-1.993c.64-.317 1.148-.578 1.148-1.155 0-.578-.508-.825-1.148-1.148zm-3.15 3.534A5.974 5.974 0 0028.513 9.6a5.953 5.953 0 002.379-2.38 5.933 5.933 0 002.385 2.38 5.947 5.947 0 00-2.385 2.385z" fill="#FBC469"/></svg>
